X:1
T:Title
%%score { 1 | ( 2 3 ) }
L:1/8
M:6/4
K:F
V:1 treble nm="Grand Piano"
V:2 bass 
V:3 bass 
V:1
 z6 z4[Q:1/4=114] c2 | [Ac]2 [CFA]2 [CAc]2 [Ac]2 [CFA]2 [CAc]2 | %2
 [GB]2 [B,CFA]2 [B,CG]2 [F,A,CF]4 A2 |[M:27/16] [FA]-<[FA]B-<BG-<G[FA]c/-c/-c/-c/-c/-c-<cA-<A | %4
 [FA]-<[FA]B-<BG-<G[FA]c/-c/-c/-c/-c/-c-<c[FA]-<[FA] |[M:6/4] .[EG]6 .[F=B]4 B2 | [Ec]12 | %7
 A A3 A2 A6 | [FA] [FA]3 [FA]2 [FA]6 | [Ac]2 [Af]2 [FA]2 .[Ec]4 [CG]2 | %10
[M:5/4] [A,F]2- [A,F]2- [A,F]6 |] %11
V:2
 z6 z4 A2 | z2 A,2 A,2 z2 A,2 A,2 | z2 G,2 G,2 F,,4 F2 | %3
[M:27/16] z/ z/ z G-<GE-<E z A/-A/-A/-A/-A/-A-<A[K:treble]F-<F | %4
 z/ z/ z G-<GE-<E z A/-A/-A/-A/-A/-A-<AF,-<F, |[M:6/4] z4[K:treble] c2 z2 A2 F2 | C,12 | %7
 [F,F] [F,F]3 [F,F]2 [F,F]6 | D, D,3 D,2 D,6 | C,2 C,2 C,2 z2[K:treble] B2[K:bass] C,2 | %10
[M:5/4] F,,2- F,,2- F,,6 |] %11
V:3
 x12 | .F,6 F,6 | E,6 z6 | %3
[M:27/16] C,/-C,/-C,/-C,/-C,/-C,/-C,/-C,/-C,-<C,F,/-F,/-F,/-F,/-F,/-F,/-F,/-F,-<F,[K:treble] z/ z/ z | %4
 C,/-C,/-C,/-C,/-C,/-C,/-C,/-C,/-C,-<C,F,/-F,/-F,/-F,/-F,/-F,/-F,/-F,-<F, z/ z/ z | %5
[M:6/4] G,6[K:treble] G,,6 | x12 | x12 | x12 | z6 .C,6[K:treble][K:bass] |[M:5/4] x10 |] %11

